X: 122009
P: Same figure.
M: C
L: 1/8
K: D
fddc d2(df) | edcB AGFE |\
fddc d2(df) | edcd efge |]
faa^g a2(af) | bagf (ef)g2 |\
(Ad)dd (dc)cc | (cB)BB (BA)AA |\


